X:1
T:Prelude
T:Prelude
T:Op. 28 No. 11
T:Frédéric Chopin
C:Frédéric Chopin
%%score { ( 1 3 ) | 2 }
L:1/8
Q:1/4=172
M:6/8
K:B
V:1 treble nm="鋼琴" snm="Pno."
V:3 treble 
V:2 bass 
V:1
"^Vivace"!mf! (!>!f6 |!>(! ^efg f=ed)!>)! |!p! ([Ec]F{A}"^"G FFd | [Ec]F{A}"^"G FFd | %4
!<(! [Ec]F[DB] F[Bd]F | [B^e][Ff][Bg]!<)!!mf!!>(! [Ff][B=e][Fd])!>)! |!p! ([Ec]F{A}"^"G FFd | %7
 [Ec]F{A}"^"G FFd | [Ec]F[DB]!<(! F[Bd]F | [Bf]F[A^^f] ^^F[Bg]G!<)! |!mf! [db]B{f}"^"e dB[gb] | %11
 [fa]dA{c}"^" BA[df]) |[Q:1/4=164]!>(! !^!B4-!>)![Q:1/4=156] B!<(!!^!c!<)! | %13
[Q:1/4=148]!mf! !^!d6[Q:1/4=124][Q:1/4=100] |!p![Q:1/4=172]"^a tempo" ([Ec]F{GA}G FFd | %15
 [Ec]F{GA}G FFd | [Ec]F[DB]!<(! F[Bd]F | [B^e][Ff][Bg]!<)!!mf!!>(! [Ff][B=e][Fd])!>)! | %18
!p!!<(! ([Ec]F{GA}G FFd | [Ec]F{GA}G FFf)!<)! |!f!{/D} (f6 | %21
"_a piacere"[Q:1/4=164]!>(! ^efg[Q:1/4=156] f=ed)!>)! | %22
!mf![Q:1/4=148] (d3[Q:1/4=140] ^^F3[Q:1/4=132] | G3[Q:1/4=124][Q:1/4=116]!>(! E3[Q:1/4=118] | %24
 [DB]6)!>)! |!p! ([F,DF]6[Q:1/4=100] |[Q:1/4=60] [F,B,D]6) |] %27
V:2
 z6 | z6 |!ped! A,F,C, F,,C,F,!ped-up! |!ped! A,F,C, F,,C,F,!ped-up! |!ped! B,,F,B,, F,D,B, | %5
 DF,B, D,F,B,,!ped-up! |!ped! A,F,C, F,,C,F,!ped-up! |!ped! A,F,C, F,,C,F,!ped-up! | %8
!ped! B,,F,B,, F,D,B, | D!ped-up!F,C E,B,D, |!ped! G,,D,B, G,DB,!ped-up! | %11
!ped! D,FA, F,DA,!ped-up! |!ped! E,,B,B,, G,B,E,!ped-up! | %13
!<(!!ped! B,,^E,!<)!F,!ped-up!!>(! CB,!>)!G, |!ped! A,F,C, F,,C,F,!ped-up! | %15
!ped! A,F,C, F,,C,F,!ped-up! |!ped! B,,,F,,B,, F,D,B,!ped-up! | ^^CDE D^CB, |!ped! A,zC, F,,C,F, | %19
 A,F,C, F,,C,A,!ped-up! |!ped! [B,,F,D]6 | z6!ped-up! | z2 z ([D,A,]3 | [G,B,]3 [F,A,]3 | %24
!ped! [B,,F,]6) | ([B,,,B,,]3 [F,,,F,,]3 | [B,,,B,,]6)!ped-up! |] %27
V:3
 x6 | x6 | x6 | x6 | x6 | x6 | x6 | x6 | x6 | x6 | x6 | x6 | GEF!p! E G2 | %13
 B"_poco rit."!>(!DF!>)! DFG | x6 | x6 | x6 | x6 | x6 | x6 | x6 | x6 | x3 ^^cde | dcB dcB | x6 | %25
 x6 | x6 |] %27

